icons/desktop/16/svg/tab-notes-16.svg

<svg width="16" height="16" viewBox="0 0 16 16" fill="none" xmlns="http://www.w3.org/2000/svg">
<path fill-rule="evenodd" clip-rule="evenodd" d="M3.41406 1.2643C6.43205 0.915307 9.54034 0.914352 12.5693 1.26235C13.9551 1.42151 15.0008 2.60196 15.001 3.99673V9.62759C15.001 10.1575 14.7899 10.6657 14.416 11.0407L11.0215 14.4411C10.7145 14.749 10.3051 14.9357 9.87109 14.9557C9.24609 14.9847 8.62 14.9997 8 14.9997C6.47106 14.9997 4.92612 14.911 3.40918 14.736C2.03118 14.577 1 13.3896 1 12.0026V3.9938C1.00009 2.59588 2.03812 1.4223 3.41406 1.2643ZM12.4092 2.75356C9.49118 2.41556 6.49394 2.41556 3.58594 2.75356C2.96701 2.82456 2.50009 3.35788 2.5 3.9938V12.0026C2.5 12.6315 2.96592 13.1746 3.59082 13.2467C5.70482 13.4907 7.859 13.5491 10 13.4391V10.7497C10.0002 10.3358 10.3361 9.99966 10.75 9.99966L13.5 10.0006V3.9977C13.4999 3.36887 13.034 2.82561 12.4092 2.75356Z" fill="black"/>
</svg>

<!-- This Source Code Form is subject to the terms of the Mozilla Public
   - License, v. 2.0. If a copy of the MPL was not distributed with this
   - file, You can obtain one at http://mozilla.org/MPL/2.0/. -->
<svg xmlns="http://www.w3.org/2000/svg" width="16" height="16" fill="context-fill" fill-opacity="context-fill-opacity" viewBox="0 0 16 16">
    <path fill-rule="evenodd" d="M3.414 1.264a40.2 40.2 0 0 1 9.155-.002 2.75 2.75 0 0 1 2.432 2.735v5.63c0 .53-.211 1.039-.585 1.414l-3.395 3.4a1.74 1.74 0 0 1-1.15.515Q8.931 15 8 15c-1.529 0-3.074-.089-4.59-.264C2.03 14.577 1 13.39 1 12.003v-8.01a2.737 2.737 0 0 1 2.414-2.729m8.995 1.49a38.5 38.5 0 0 0-8.823 0A1.24 1.24 0 0 0 2.5 3.994v8.009c0 .629.466 1.172 1.09 1.244a39 39 0 0 0 6.41.192v-2.69a.75.75 0 0 1 .75-.75l2.75.002V3.998c0-.63-.466-1.172-1.09-1.244" clip-rule="evenodd" />
</svg>
